images/TikTok.svg

<svg viewBox="0 0 25 24" fill="none" xmlns="http://www.w3.org/2000/svg">
    <path d="M16.8217 5.1344C16.0886 4.29394 15.6479 3.19805 15.6479 2H14.7293M16.8217 5.1344C17.4898 5.90063 18.3944 6.45788 19.4245 6.67608C19.7446 6.74574 20.0786 6.78293 20.4266 6.78293V10.2191C18.645 10.2191 16.9932 9.64801 15.6477 8.68211V15.6707C15.6477 19.1627 12.8082 22 9.32386 22C7.50043 22 5.85334 21.2198 4.69806 19.98C3.64486 18.847 2.99994 17.3331 2.99994 15.6707C2.99994 12.2298 5.75592 9.42509 9.17073 9.35079M16.8217 5.1344C16.8039 5.12276 16.7861 5.11101 16.7684 5.09914M6.9855 17.3517C6.64217 16.8781 6.43802 16.2977 6.43802 15.6661C6.43802 14.0734 7.73249 12.7778 9.32394 12.7778C9.62087 12.7778 9.9085 12.8288 10.1776 12.9124V9.40192C9.89921 9.36473 9.61622 9.34149 9.32394 9.34149C9.27287 9.34149 8.86177 9.36884 8.81073 9.36884M14.7244 2H12.2097L12.2051 15.7775C12.1494 17.3192 10.8781 18.5591 9.32386 18.5591C8.35878 18.5591 7.50971 18.0808 6.98079 17.3564" stroke="black" stroke-linejoin="round"/>
</svg>

<svg viewBox="0 0 25 24" fill="none" xmlns="http://www.w3.org/2000/svg"><path d="M16.822 5.134A4.75 4.75 0 0 1 15.648 2h-.919m2.093 3.134a4.773 4.773 0 0 0 3.605 1.649v3.436a8.172 8.172 0 0 1-4.78-1.537v6.989c0 3.492-2.839 6.329-6.323 6.329-1.824 0-3.47-.78-4.626-2.02A6.31 6.31 0 0 1 3 15.67c0-3.44 2.756-6.245 6.17-6.32m7.652-4.216a5.512 5.512 0 0 1-.054-.035M6.985 17.352a2.859 2.859 0 0 1-.547-1.686 2.89 2.89 0 0 1 2.886-2.888c.297 0 .585.05.854.134v-3.51a6.418 6.418 0 0 0-.854-.06c-.051 0-.462.027-.513.027M14.724 2H12.21l-.005 13.777a2.89 2.89 0 0 1-2.881 2.782 2.898 2.898 0 0 1-2.343-1.203" stroke="#000" stroke-linejoin="round"/></svg>
